images/algorithm-03.svg

<?xml version="1.0" encoding="iso-8859-1"?>
<!-- Generator: Adobe Illustrator 18.1.0, SVG Export Plug-In . SVG Version: 6.00 Build 0)  -->
<svg version="1.1" xmlns="http://www.w3.org/2000/svg" xmlns:xlink="http://www.w3.org/1999/xlink" x="0px" y="0px"
	 viewBox="0 0 80 520" style="enable-background:new 0 0 80 520;" xml:space="preserve">
<g id="Layer_2" style="display:none;">
	
		<image style="display:inline;overflow:visible;" width="1347" height="305" xlink:href="../algorithms.png"  transform="matrix(2.4473 0 0 2.4473 -265.5459 495.4146)">
	</image>
	<rect x="-209" y="-21" style="display:inline;fill:#333333;" width="3204" height="575"/>
</g>
<g id="Layer_1">
	<g>
		<path style="fill:#BFBFBF;" d="M42,340v23H19v-23H42 M44,338H17v27h27V338L44,338z"/>
	</g>
	<g>
		<path style="fill:#BFBFBF;" d="M63,100v23H40v-23H63 M65,98H38v27h27V98L65,98z"/>
	</g>
	<g>
		<path style="fill:#BFBFBF;" d="M63,20v23H40V20H63 M65,18H38v27h27V18L65,18z"/>
	</g>
	<g>
		<path style="fill:#BFBFBF;" d="M26.804,355.301c0.357-0.85,1.201-1.749,2.531-2.698c1.154-0.826,1.901-1.418,2.241-1.775
			c0.521-0.557,0.782-1.166,0.782-1.828c0-0.539-0.149-0.987-0.448-1.345s-0.727-0.536-1.283-0.536c-0.762,0-1.28,0.284-1.556,0.853
			c-0.158,0.328-0.252,0.85-0.281,1.564h-2.435c0.041-1.084,0.237-1.96,0.589-2.628c0.669-1.271,1.856-1.907,3.563-1.907
			c1.349,0,2.422,0.374,3.22,1.12c0.798,0.748,1.197,1.736,1.197,2.967c0,0.943-0.282,1.781-0.845,2.514
			c-0.37,0.486-0.978,1.028-1.823,1.626l-1.004,0.712c-0.628,0.445-1.058,0.768-1.29,0.967s-0.426,0.431-0.584,0.694h5.563v2.206
			h-8.728C26.239,356.892,26.435,356.057,26.804,355.301z"/>
	</g>
	<g>
		<g>
			<path style="fill:#BFBFBF;" d="M63,180v23H40v-23H63 M65,178H38v27h27V178L65,178z"/>
		</g>
		<g>
			<path style="fill:#BFBFBF;" d="M56.031,194.923h-1.441v2.742h-2.452v-2.742h-5.045v-2.188L51.777,185h2.812v7.963h1.441V194.923z
				 M52.137,192.963v-5.489l-3.181,5.489H52.137z"/>
		</g>
	</g>
	<g>
		<path style="fill:#BFBFBF;" d="M49.72,113.833c0.099,0.545,0.289,0.965,0.57,1.261s0.69,0.444,1.228,0.444
			c0.62,0,1.092-0.218,1.416-0.655c0.325-0.437,0.487-0.986,0.487-1.648c0-0.65-0.152-1.2-0.456-1.648
			c-0.304-0.448-0.777-0.672-1.42-0.672c-0.304,0-0.567,0.038-0.789,0.114c-0.392,0.141-0.687,0.401-0.886,0.782l-2.246-0.105
			l0.895-7.04h7.012v2.127h-5.205l-0.456,2.786c0.386-0.252,0.688-0.419,0.904-0.501c0.363-0.135,0.804-0.202,1.325-0.202
			c1.053,0,1.972,0.354,2.756,1.063s1.176,1.74,1.176,3.094c0,1.178-0.377,2.229-1.133,3.155c-0.755,0.926-1.885,1.389-3.389,1.389
			c-1.211,0-2.207-0.325-2.985-0.976c-0.778-0.65-1.211-1.573-1.299-2.769H49.72z"/>
	</g>
	<g>
		<path style="fill:#BFBFBF;" d="M53.174,27.997c0-0.205-0.079-0.431-0.237-0.677c-0.27-0.398-0.677-0.598-1.222-0.598
			c-0.814,0-1.395,0.457-1.74,1.371c-0.188,0.504-0.316,1.248-0.387,2.232c0.311-0.369,0.671-0.639,1.081-0.809
			s0.879-0.255,1.406-0.255c1.131,0,2.058,0.384,2.782,1.151s1.085,1.749,1.085,2.944c0,1.189-0.354,2.238-1.063,3.146
			s-1.811,1.362-3.305,1.362c-1.605,0-2.789-0.671-3.551-2.013c-0.592-1.049-0.888-2.402-0.888-4.061
			c0-0.973,0.041-1.764,0.123-2.373c0.146-1.084,0.431-1.986,0.853-2.707c0.363-0.615,0.839-1.11,1.428-1.485
			s1.293-0.562,2.114-0.562c1.184,0,2.127,0.303,2.83,0.91s1.099,1.414,1.187,2.421H53.174z M50.204,35.178
			c0.369,0.434,0.838,0.65,1.406,0.65c0.557,0,0.995-0.209,1.314-0.628s0.479-0.962,0.479-1.63c0-0.744-0.182-1.314-0.545-1.709
			s-0.809-0.593-1.336-0.593c-0.428,0-0.806,0.129-1.134,0.387c-0.492,0.381-0.738,0.996-0.738,1.846
			C49.65,34.185,49.834,34.744,50.204,35.178z"/>
	</g>
	<g>
		<path style="fill:#BFBFBF;" d="M44,445v-27H17v27H44z M32.257,437.744h-2.566v-8.789h-2.997v-1.705
			c0.789-0.035,1.341-0.088,1.657-0.158c0.503-0.111,0.912-0.334,1.228-0.668c0.216-0.229,0.38-0.533,0.491-0.914
			c0.064-0.229,0.096-0.398,0.096-0.51h2.092V437.744z"/>
	</g>
	<g>
		<g>
			<line style="fill:none;stroke:#BFBFBF;stroke-width:2;stroke-miterlimit:10;" x1="52" y1="204" x2="52" y2="493"/>
			<g>
				<polygon style="fill:#BFBFBF;" points="48.011,492 52,498.908 55.989,492 				"/>
			</g>
		</g>
	</g>
	<g>
		<g>
			<line style="fill:none;stroke:#BFBFBF;stroke-width:2;stroke-miterlimit:10;" x1="52" y1="123" x2="52" y2="173"/>
			<g>
				<polygon style="fill:#BFBFBF;" points="48.011,172 52,178.908 55.989,172 				"/>
			</g>
		</g>
	</g>
	<g>
		<g>
			<line style="fill:none;stroke:#BFBFBF;stroke-width:2;stroke-miterlimit:10;" x1="52" y1="45" x2="52" y2="92"/>
			<g>
				<polygon style="fill:#BFBFBF;" points="48.011,91 52,97.908 55.989,91 				"/>
			</g>
		</g>
	</g>
	<g>
		<g>
			<line style="fill:none;stroke:#BFBFBF;stroke-width:2;stroke-miterlimit:10;" x1="31" y1="364" x2="31" y2="412"/>
			<g>
				<polygon style="fill:#BFBFBF;" points="27.011,411 31,417.908 34.989,411 				"/>
			</g>
		</g>
	</g>
	<g>
		<g>
			<line style="fill:none;stroke:#BFBFBF;stroke-width:2;stroke-miterlimit:10;" x1="31" y1="285" x2="31" y2="333"/>
			<g>
				<polygon style="fill:#BFBFBF;" points="27.011,332 31,338.908 34.989,332 				"/>
			</g>
		</g>
	</g>
	<g>
		<g>
			<line style="fill:none;stroke:#BFBFBF;stroke-width:2;stroke-miterlimit:10;" x1="31" y1="445" x2="31" y2="493"/>
			<g>
				<polygon style="fill:#BFBFBF;" points="27.011,492 31,498.908 34.989,492 				"/>
			</g>
		</g>
	</g>
	<g>
		<g>
			<polyline style="fill:none;stroke:#BFBFBF;stroke-width:2;stroke-miterlimit:10;" points="51,56 31,56 31,6 51,6 51,12 			"/>
			<g>
				<polygon style="fill:#BFBFBF;" points="47.011,11 51,17.908 54.989,11 				"/>
			</g>
		</g>
	</g>
	<polygon style="fill:none;stroke:#BFBFBF;stroke-width:2;stroke-miterlimit:10;" points="68.553,500 40,518 11.447,500 	"/>
	<g>
		<g>
			<path style="fill:#BFBFBF;" d="M42,260v23H19v-23H42 M44,258H17v27h27V258L44,258z"/>
		</g>
		<g>
			<path style="fill:#BFBFBF;" d="M28.43,274.089c0,0.51,0.082,0.932,0.246,1.266c0.304,0.615,0.856,0.923,1.657,0.923
				c0.491,0,0.919-0.168,1.285-0.506c0.365-0.336,0.548-0.821,0.548-1.454c0-0.838-0.339-1.397-1.017-1.679
				c-0.385-0.158-0.993-0.237-1.822-0.237v-1.793c0.812-0.012,1.378-0.091,1.699-0.237c0.555-0.246,0.832-0.744,0.832-1.494
				c0-0.486-0.142-0.882-0.425-1.187c-0.283-0.305-0.682-0.457-1.196-0.457c-0.59,0-1.024,0.188-1.302,0.562
				c-0.278,0.375-0.411,0.876-0.399,1.503h-2.338c0.023-0.633,0.132-1.233,0.325-1.802c0.205-0.498,0.527-0.958,0.966-1.38
				c0.328-0.299,0.717-0.527,1.167-0.686s1.004-0.237,1.66-0.237c1.217,0,2.199,0.315,2.946,0.944
				c0.746,0.631,1.119,1.476,1.119,2.536c0,0.75-0.223,1.383-0.668,1.898c-0.281,0.322-0.574,0.542-0.879,0.659
				c0.229,0,0.557,0.196,0.984,0.589c0.639,0.592,0.958,1.4,0.958,2.426c0,1.078-0.373,2.026-1.12,2.843
				c-0.746,0.818-1.851,1.227-3.314,1.227c-1.803,0-3.056-0.589-3.758-1.767c-0.369-0.627-0.574-1.447-0.615-2.461H28.43z"/>
		</g>
	</g>
</g>
</svg>

<?xml version="1.0" encoding="UTF-8" standalone="no"?><!DOCTYPE svg PUBLIC "-//W3C//DTD SVG 1.1//EN" "http://www.w3.org/Graphics/SVG/1.1/DTD/svg11.dtd"><svg width="100%" height="100%" viewBox="0 0 80 520" version="1.1" xmlns="http://www.w3.org/2000/svg" xmlns:xlink="http://www.w3.org/1999/xlink" xml:space="preserve" xmlns:serif="http://www.serif.com/" style="fill-rule:evenodd;clip-rule:evenodd;stroke-miterlimit:10;"><g transform="matrix(1,0,0,1,9,0)"><g><path d="M43,193L43,187.809L39.833,193L43,193Z" style="fill:rgb(191,191,191);fill-rule:nonzero;"/></g><g><path d="M29,178L29,205L56,205L56,178L29,178ZM46.908,195.258L45.467,195.258L45.467,198L43.015,198L43.015,195.258L37.97,195.258L37.97,193.07L42.655,185.336L45.467,185.336L45.467,193.299L46.908,193.299L46.908,195.258Z" style="fill:rgb(191,191,191);fill-rule:nonzero;"/></g></g><g id="Layer_1"><g><path d="M42,340L42,363L19,363L19,340L42,340M44,338L17,338L17,365L44,365L44,338Z" style="fill:rgb(191,191,191);fill-rule:nonzero;"/></g><g><path d="M63,100L63,123L40,123L40,100L63,100M65,98L38,98L38,125L65,125L65,98Z" style="fill:rgb(191,191,191);fill-rule:nonzero;"/></g><g><path d="M63,20L63,43L40,43L40,20L63,20M65,18L38,18L38,45L65,45L65,18Z" style="fill:rgb(191,191,191);fill-rule:nonzero;"/></g><g><path d="M26.804,355.301C27.161,354.451 28.005,353.552 29.335,352.603C30.489,351.777 31.236,351.185 31.576,350.828C32.097,350.271 32.358,349.662 32.358,349C32.358,348.461 32.209,348.013 31.91,347.655C31.611,347.297 31.183,347.119 30.627,347.119C29.865,347.119 29.347,347.403 29.071,347.972C28.913,348.3 28.819,348.822 28.79,349.536L26.355,349.536C26.396,348.452 26.592,347.576 26.944,346.908C27.613,345.637 28.8,345.001 30.507,345.001C31.856,345.001 32.929,345.375 33.727,346.121C34.525,346.869 34.924,347.857 34.924,349.088C34.924,350.031 34.642,350.869 34.079,351.602C33.709,352.088 33.101,352.63 32.256,353.228L31.252,353.94C30.624,354.385 30.194,354.708 29.962,354.907C29.73,355.106 29.536,355.338 29.378,355.601L34.941,355.601L34.941,357.807L26.213,357.807C26.239,356.892 26.435,356.057 26.804,355.301Z" style="fill:rgb(191,191,191);fill-rule:nonzero;"/></g><g><path d="M49.72,113.833C49.819,114.378 50.009,114.798 50.29,115.094C50.571,115.39 50.98,115.538 51.518,115.538C52.138,115.538 52.61,115.32 52.934,114.883C53.259,114.446 53.421,113.897 53.421,113.235C53.421,112.585 53.269,112.035 52.965,111.587C52.661,111.139 52.188,110.915 51.545,110.915C51.241,110.915 50.978,110.953 50.756,111.029C50.364,111.17 50.069,111.43 49.87,111.811L47.624,111.706L48.519,104.666L55.531,104.666L55.531,106.793L50.326,106.793L49.87,109.579C50.256,109.327 50.558,109.16 50.774,109.078C51.137,108.943 51.578,108.876 52.099,108.876C53.152,108.876 54.071,109.23 54.855,109.939C55.639,110.648 56.031,111.679 56.031,113.033C56.031,114.211 55.654,115.262 54.898,116.188C54.143,117.114 53.013,117.577 51.509,117.577C50.298,117.577 49.302,117.252 48.524,116.601C47.746,115.951 47.313,115.028 47.225,113.832L49.72,113.832L49.72,113.833Z" style="fill:rgb(191,191,191);fill-rule:nonzero;"/></g><g><path d="M53.174,27.997C53.174,27.792 53.095,27.566 52.937,27.32C52.667,26.922 52.26,26.722 51.715,26.722C50.901,26.722 50.32,27.179 49.975,28.093C49.787,28.597 49.659,29.341 49.588,30.325C49.899,29.956 50.259,29.686 50.669,29.516C51.079,29.346 51.548,29.261 52.075,29.261C53.206,29.261 54.133,29.645 54.857,30.412C55.581,31.179 55.942,32.161 55.942,33.356C55.942,34.545 55.588,35.594 54.879,36.502C54.17,37.41 53.068,37.864 51.574,37.864C49.969,37.864 48.785,37.193 48.023,35.851C47.431,34.802 47.135,33.449 47.135,31.79C47.135,30.817 47.176,30.026 47.258,29.417C47.404,28.333 47.689,27.431 48.111,26.71C48.474,26.095 48.95,25.6 49.539,25.225C50.128,24.85 50.832,24.663 51.653,24.663C52.837,24.663 53.78,24.966 54.483,25.573C55.186,26.18 55.582,26.987 55.67,27.994L53.174,27.994L53.174,27.997ZM50.204,35.178C50.573,35.612 51.042,35.828 51.61,35.828C52.167,35.828 52.605,35.619 52.924,35.2C53.243,34.781 53.403,34.238 53.403,33.57C53.403,32.826 53.221,32.256 52.858,31.861C52.495,31.466 52.049,31.268 51.522,31.268C51.094,31.268 50.716,31.397 50.388,31.655C49.896,32.036 49.65,32.651 49.65,33.501C49.65,34.185 49.834,34.744 50.204,35.178Z" style="fill:rgb(191,191,191);fill-rule:nonzero;"/></g><g><path d="M44,445L44,418L17,418L17,445L44,445ZM32.258,437.744L29.691,437.744L29.691,428.955L26.694,428.955L26.694,427.25C27.483,427.215 28.035,427.162 28.351,427.092C28.854,426.981 29.263,426.758 29.579,426.424C29.795,426.195 29.959,425.891 30.07,425.51C30.134,425.281 30.166,425.112 30.166,425L32.258,425L32.258,437.744Z" style="fill:rgb(191,191,191);fill-rule:nonzero;"/></g><g><g><path d="M52,204L52,493" style="fill:none;fill-rule:nonzero;stroke:rgb(191,191,191);stroke-width:2px;"/><g><path d="M48.011,492L52,498.908L55.989,492L48.011,492Z" style="fill:rgb(191,191,191);fill-rule:nonzero;"/></g></g></g><g><g><path d="M52,123L52,173" style="fill:none;fill-rule:nonzero;stroke:rgb(191,191,191);stroke-width:2px;"/><g><path d="M48.011,172L52,178.908L55.989,172L48.011,172Z" style="fill:rgb(191,191,191);fill-rule:nonzero;"/></g></g></g><g><g><path d="M52,45L52,92" style="fill:none;fill-rule:nonzero;stroke:rgb(191,191,191);stroke-width:2px;"/><g><path d="M48.011,91L52,97.908L55.989,91L48.011,91Z" style="fill:rgb(191,191,191);fill-rule:nonzero;"/></g></g></g><g><g><path d="M31,364L31,412" style="fill:none;fill-rule:nonzero;stroke:rgb(191,191,191);stroke-width:2px;"/><g><path d="M27.011,411L31,417.908L34.989,411L27.011,411Z" style="fill:rgb(191,191,191);fill-rule:nonzero;"/></g></g></g><g><g><path d="M31,285L31,333" style="fill:none;fill-rule:nonzero;stroke:rgb(191,191,191);stroke-width:2px;"/><g><path d="M27.011,332L31,338.908L34.989,332L27.011,332Z" style="fill:rgb(191,191,191);fill-rule:nonzero;"/></g></g></g><g><g><path d="M31,445L31,493" style="fill:none;fill-rule:nonzero;stroke:rgb(191,191,191);stroke-width:2px;"/><g><path d="M27.011,492L31,498.908L34.989,492L27.011,492Z" style="fill:rgb(191,191,191);fill-rule:nonzero;"/></g></g></g><g><g><path d="M51,56L31,56L31,6L51,6L51,12" style="fill:none;fill-rule:nonzero;stroke:rgb(191,191,191);stroke-width:2px;"/><g><path d="M47.011,11L51,17.908L54.989,11L47.011,11Z" style="fill:rgb(191,191,191);fill-rule:nonzero;"/></g></g></g><path d="M68.553,500L40,518L11.447,500L68.553,500Z" style="fill:none;fill-rule:nonzero;stroke:rgb(191,191,191);stroke-width:2px;"/><g><g><path d="M42,260L42,283L19,283L19,260L42,260M44,258L17,258L17,285L44,285L44,258Z" style="fill:rgb(191,191,191);fill-rule:nonzero;"/></g><g><path d="M28.43,274.089C28.43,274.599 28.512,275.021 28.676,275.355C28.98,275.97 29.532,276.278 30.333,276.278C30.824,276.278 31.252,276.11 31.618,275.772C31.983,275.436 32.166,274.951 32.166,274.318C32.166,273.48 31.827,272.921 31.149,272.639C30.764,272.481 30.156,272.402 29.327,272.402L29.327,270.609C30.139,270.597 30.705,270.518 31.026,270.372C31.581,270.126 31.858,269.628 31.858,268.878C31.858,268.392 31.716,267.996 31.433,267.691C31.15,267.386 30.751,267.234 30.237,267.234C29.647,267.234 29.213,267.422 28.935,267.796C28.657,268.171 28.524,268.672 28.536,269.299L26.198,269.299C26.221,268.666 26.33,268.066 26.523,267.497C26.728,266.999 27.05,266.539 27.489,266.117C27.817,265.818 28.206,265.59 28.656,265.431C29.106,265.272 29.66,265.194 30.316,265.194C31.533,265.194 32.515,265.509 33.262,266.138C34.008,266.769 34.381,267.614 34.381,268.674C34.381,269.424 34.158,270.057 33.713,270.572C33.432,270.894 33.139,271.114 32.834,271.231C33.063,271.231 33.391,271.427 33.818,271.82C34.457,272.412 34.776,273.22 34.776,274.246C34.776,275.324 34.403,276.272 33.656,277.089C32.91,277.907 31.805,278.316 30.342,278.316C28.539,278.316 27.286,277.727 26.584,276.549C26.215,275.922 26.01,275.102 25.969,274.088L28.43,274.088L28.43,274.089Z" style="fill:rgb(191,191,191);fill-rule:nonzero;"/></g></g></g></svg>
